X: 134
T: Five Miles Out of Town
B: canberra pickers and fiddlers
B: old time tunes update
B: tunes
M:C|
L:1/8
R: Reel
Q: 1/4=100
K:D
V:1 
DB,|A,2 D2 DFEF|DEFA B2A2|dBAd BAFG|AFDF EDB,G,|
A,2D2 DFEF|DFAd B2A2|dBAd BFAB|AFEF D2:|
|:de|fa2b afde|fgab a2af|gbef geag |fedf edBA|
[FA]-[A2A2]B AFAB|A2d2 fafe|dBAd BAFB|AFEF D2:|]
% abcbook-tune_id 67a7d9ec6a248cbced1f2dda
% abcbook-tune_composer_id 
% abcbook-link-0 https://www.youtube.com/watch?v=51KPdSrtcYQ
% abcbook-link-title-0 Echo Mountain - Five Miles From Town
% abcbook-boost 0
% abcbook-difficulty 0
% abcbook-tags old time tunes
% abcbook-tablature 
% abcbook-transpose 
% abcbook-tuning ADAE
% abcbook-lastupdated 1739253024674
% abcbook-src-url 
% abcbook-soundfonts 
% abcbook-repeats 1


